X: 1387
T: Muhâlif Peşrev
C: Gazi Giray Han
O: Turkey
F: http://compmusic.upf.edu/node/140
N: muhalif--pesrev--cenber----ahmet_coban_giray
N: makam= muhalif
N: form= pesrev
N: usul= cenber = 24/4
M: 24/4
L: 1/16
K: C _1/4B   
Q: 1/4=54
%%MIDI tuningsystem comma53
gf fe f2 g2 a2 gb ag f2  | gf ga gf e2 gf ed c4  | 
w:  1. HANE  |   | 
z2 b2 a2 g2 f2 g2 ab ag  | g6 fe fg fe g4  | \
w:   |   | 
z2 g2 f2 g2 d2 _ef ed c2  | 
w:   | 
_e3d dc cB c4 z4  | g3f f_1/4e d2 f3_e ed c2  | \
w:   |   | 
_e3d dc B2 c2 de dc BA  | 
w:   | 
G3A B2 c2 d_e dc c4  | z2 _1/4ef g2 a2 b2 ag f2 d'2  | \
w:   |   | 
c'2 b4 a2 g2 a4 b2  | 
w:   | 
a3g f2 g2 f4 g4  | z4 f2 g2 f4 b4  | \
w:   |   | 
b2 a4 b2 a3g f2 g2  | f2 z2 g2 a2 b4 a2 g2  | 
w:   |   | 
f6 g2 a6 g2  | c'3b a2 b2 a3g f2 g2  | \
w:   |   | 
f4 g8 z4  | g2 fg f2 ga g2 ab ag f2  | 
w:   |  MÜLÂZİME  | 
ga gf _1/4e2 fg e3/2g/ fe de c2  | \
w:   | 
df _ed dc cB c3e dc BA  | 
w:   | 
G3A B2 c2 Ac BA GA F2  | z2 c2 B2 A2 AB AG F2 G2  | 
w:   |   | 
F2 B4 AG G4 z4  | g2 fg f2 ga g2 ab ag f2  | \
w:   |  MÜLÂZİME  | 
ga gf _1/4e2 fg e3/2g/ fe de c2  | 
w:   | 
df _ed dc cB c3e dc BA  | G3A B2 c2 Ac BA GA F2  | 
w:   |   | 
z2 c2 B2 A2 AB AG F2 G2  | F2 B4 AG G4 z4  | |


